Point/img/logo.svg

<svg width="105" height="49" viewBox="0 0 105 49" fill="none" xmlns="http://www.w3.org/2000/svg">
<path d="M14.544 38.432C12.72 38.432 11.2 38.144 9.984 37.568C8.768 36.96 7.664 36.016 6.672 34.736V48.224H2.4V14.576H6.672V17.936C7.664 16.72 8.848 15.744 10.224 15.008C11.6 14.272 13.04 13.904 14.544 13.904C16.176 13.904 17.728 14.224 19.2 14.864C20.704 15.472 22 16.352 23.088 17.504C24.208 18.656 25.072 19.984 25.68 21.488C26.32 22.96 26.64 24.528 26.64 26.192C26.64 27.856 26.32 29.424 25.68 30.896C25.072 32.368 24.208 33.68 23.088 34.832C22 35.952 20.704 36.832 19.2 37.472C17.728 38.112 16.176 38.432 14.544 38.432ZM14.544 18.272C13.488 18.272 12.48 18.48 11.52 18.896C10.56 19.28 9.728 19.84 9.024 20.576C8.32 21.312 7.76 22.176 7.344 23.168C6.928 24.128 6.72 25.136 6.72 26.192C6.72 27.248 6.928 28.256 7.344 29.216C7.76 30.176 8.32 31.024 9.024 31.76C9.728 32.496 10.56 33.072 11.52 33.488C12.48 33.904 13.488 34.112 14.544 34.112C15.6 34.112 16.608 33.904 17.568 33.488C18.528 33.072 19.36 32.496 20.064 31.76C20.768 31.024 21.312 30.176 21.696 29.216C22.112 28.256 22.32 27.248 22.32 26.192C22.32 25.136 22.112 24.128 21.696 23.168C21.312 22.176 20.768 21.312 20.064 20.576C19.36 19.84 18.528 19.28 17.568 18.896C16.608 18.48 15.6 18.272 14.544 18.272ZM42.6109 38.24C40.9789 38.24 39.4269 37.92 37.9549 37.28C36.4829 36.64 35.1869 35.76 34.0669 34.64C32.9469 33.52 32.0669 32.224 31.4269 30.752C30.7869 29.28 30.4669 27.728 30.4669 26.096C30.4669 24.432 30.7869 22.848 31.4269 21.344C32.0669 19.84 32.9469 18.528 34.0669 17.408C35.1869 16.288 36.4829 15.424 37.9549 14.816C39.4269 14.176 40.9789 13.856 42.6109 13.856C44.2749 13.856 45.8589 14.176 47.3629 14.816C48.8669 15.424 50.1789 16.288 51.2989 17.408C52.4189 18.528 53.2829 19.84 53.8909 21.344C54.5309 22.848 54.8509 24.432 54.8509 26.096C54.8509 27.728 54.5309 29.28 53.8909 30.752C53.2829 32.224 52.4189 33.52 51.2989 34.64C50.1789 35.76 48.8669 36.64 47.3629 37.28C45.8589 37.92 44.2749 38.24 42.6109 38.24ZM42.6109 18.128C40.4669 18.128 38.6269 18.896 37.0909 20.432C36.3549 21.168 35.7789 22.032 35.3629 23.024C34.9469 24.016 34.7389 25.04 34.7389 26.096C34.7389 27.152 34.9469 28.16 35.3629 29.12C35.7789 30.08 36.3549 30.928 37.0909 31.664C37.8269 32.4 38.6589 32.976 39.5869 33.392C40.5469 33.808 41.5549 34.016 42.6109 34.016C43.6669 34.016 44.6909 33.808 45.6829 33.392C46.6749 32.976 47.5229 32.4 48.2269 31.664C48.9309 30.928 49.4909 30.08 49.9069 29.12C50.3229 28.16 50.5309 27.152 50.5309 26.096C50.5309 25.04 50.3229 24.016 49.9069 23.024C49.4909 22.032 48.9309 21.168 48.2269 20.432C47.5229 19.696 46.6749 19.136 45.6829 18.752C44.7229 18.336 43.6989 18.128 42.6109 18.128ZM61.3736 10.544C60.7656 10.544 60.2376 10.336 59.7896 9.92C59.3736 9.472 59.1656 8.944 59.1656 8.336C59.1656 7.728 59.3736 7.216 59.7896 6.8C60.2376 6.352 60.7656 6.128 61.3736 6.128C61.9816 6.128 62.4936 6.352 62.9096 6.8C63.3576 7.216 63.5816 7.728 63.5816 8.336C63.5816 8.944 63.3576 9.472 62.9096 9.92C62.4936 10.336 61.9816 10.544 61.3736 10.544ZM59.4056 38V14H63.4376V38H59.4056ZM83.232 38V23.6C83.232 22.16 82.704 20.912 81.648 19.856C80.624 18.832 79.376 18.32 77.904 18.32C76.464 18.32 75.216 18.848 74.16 19.904C73.68 20.384 73.296 20.96 73.008 21.632C72.72 22.272 72.576 22.928 72.576 23.6V38H68.4V14.576H72.576V16.544C73.184 15.808 73.984 15.2 74.976 14.72C75.968 14.24 76.944 14 77.904 14C79.184 14 80.4 14.256 81.552 14.768C82.736 15.248 83.776 15.936 84.672 16.832C85.536 17.696 86.208 18.72 86.688 19.904C87.2 21.056 87.456 22.288 87.456 23.6V38H83.232ZM98.9906 18.32V38H94.9106V18.32H91.3106V14H94.9106V6.08H98.9906V14H102.591V18.32H98.9906Z" fill="#306E9D"/>
</svg>

<svg width="105" height="49" fill="none" xmlns="http://www.w3.org/2000/svg"><path d="M14.544 38.432c-1.824 0-3.344-.288-4.56-.864-1.216-.608-2.32-1.552-3.312-2.832v13.488H2.4V14.576h4.272v3.36a11.607 11.607 0 013.552-2.928c1.376-.736 2.816-1.104 4.32-1.104 1.632 0 3.184.32 4.656.96 1.504.608 2.8 1.488 3.888 2.64a12.24 12.24 0 012.592 3.984c.64 1.472.96 3.04.96 4.704 0 1.664-.32 3.232-.96 4.704a12.379 12.379 0 01-2.592 3.936c-1.088 1.12-2.384 2-3.888 2.64-1.472.64-3.024.96-4.656.96zm0-20.16a7.526 7.526 0 00-3.024.624 7.019 7.019 0 00-2.496 1.68 8.419 8.419 0 00-1.68 2.592 7.526 7.526 0 00-.624 3.024c0 1.056.208 2.064.624 3.024.416.96.976 1.808 1.68 2.544a7.59 7.59 0 002.496 1.728c.96.416 1.968.624 3.024.624a7.526 7.526 0 003.024-.624 7.59 7.59 0 002.496-1.728 7.875 7.875 0 001.632-2.544c.416-.96.624-1.968.624-3.024a7.526 7.526 0 00-.624-3.024 7.755 7.755 0 00-1.632-2.592 7.019 7.019 0 00-2.496-1.68 7.526 7.526 0 00-3.024-.624zM42.611 38.24c-1.632 0-3.184-.32-4.656-.96a12.488 12.488 0 01-3.888-2.64c-1.12-1.12-2-2.416-2.64-3.888a11.553 11.553 0 01-.96-4.656c0-1.664.32-3.248.96-4.752a12.337 12.337 0 012.64-3.936 11.832 11.832 0 013.888-2.592c1.472-.64 3.024-.96 4.656-.96 1.664 0 3.248.32 4.752.96a11.709 11.709 0 013.936 2.592 11.709 11.709 0 012.592 3.936c.64 1.504.96 3.088.96 4.752 0 1.632-.32 3.184-.96 4.656a11.832 11.832 0 01-2.592 3.888c-1.12 1.12-2.432 2-3.936 2.64-1.504.64-3.088.96-4.752.96zm0-20.112c-2.144 0-3.984.768-5.52 2.304a8 8 0 00-1.728 2.592 7.87 7.87 0 00-.624 3.072c0 1.056.208 2.064.624 3.024.416.96.992 1.808 1.728 2.544a8.319 8.319 0 002.496 1.728c.96.416 1.968.624 3.024.624a7.87 7.87 0 003.072-.624 7.47 7.47 0 002.544-1.728 8.585 8.585 0 001.68-2.544c.416-.96.624-1.968.624-3.024a7.87 7.87 0 00-.624-3.072 8.419 8.419 0 00-1.68-2.592 6.932 6.932 0 00-2.544-1.68 7.642 7.642 0 00-3.072-.624zm18.763-7.584a2.251 2.251 0 01-1.584-.624 2.251 2.251 0 01-.624-1.584c0-.608.208-1.12.624-1.536.448-.448.976-.672 1.584-.672.608 0 1.12.224 1.536.672.448.416.672.928.672 1.536s-.224 1.136-.672 1.584c-.416.416-.928.624-1.536.624zM59.406 38V14h4.032v24h-4.032zm23.826 0V23.6c0-1.44-.528-2.688-1.584-3.744-1.024-1.024-2.272-1.536-3.744-1.536-1.44 0-2.688.528-3.744 1.584a5.448 5.448 0 00-1.152 1.728 4.75 4.75 0 00-.432 1.968V38H68.4V14.576h4.176v1.968c.608-.736 1.408-1.344 2.4-1.824s1.968-.72 2.928-.72c1.28 0 2.496.256 3.648.768a9.317 9.317 0 013.12 2.064 9.154 9.154 0 012.016 3.072 8.997 8.997 0 01.768 3.696V38h-4.224zm15.759-19.68V38h-4.08V18.32h-3.6V14h3.6V6.08h4.08V14h3.6v4.32h-3.6z" fill="#306E9D"/></svg>
